X:1
T:Barber of Seville
T:Barber of Seville
T:Overture
T:Gioacchino Rossini
C:Gioacchino Rossini
%%score ( 1 2 )
L:1/8
M:4/4
K:E
V:1 treble 
V:2 treble 
V:1
"^Andante maestoso"!ff! e'/ | e'2 z2 z4 |"^Fl." z2!p!!>(! (c'>g a)!>)! z z2 | %3
 z2"^Pi." z3/2!ff! d'/ d'2 z2 | z4"^Fl." z2!>(! b>^^f | g!>)! z z2 z4 | z8 | z8 | z8 | z8 | %10
"^Fl." z4!f! (d'4 |"A" x8 | e') z z2 z4 | z8 | z8 | z8 | z8 | z8 | z8 | z4 z2 z e'/4e'/4e'/4e'/4 | %20
 .e' z z2 z2 z f'/4f'/4f'/4"B"f'/4 | .f' z z2 z4 | z8 | z8 | z8 | z2 z3/2 b/ b2 z2 | !fermata!z8 || %27
[K:G][M:2/2]"^Allegro vivace" z4 z!p! bbb | (c'b) z2 z .b.b.b | (c'b) z2 z .b.b.b | %30
 (c'{d'c'}b) z a (a{ba}g) z f |{g} (fe/) z/ e2- e.g.g.g | (fe) z .g (fe) z .g | %33
 (bf/) z/ !>!f2 z .f.g.a | (ag) (g/4f/4e3/2) (e/4d/4c3/2) (c/4B/4^A3/2) | B z z2 z4 | z8 | %37
 z4 z!p! .e'.d'.c' | (d'/4c'/4b3/2) (c'/4b/4a3/2) (b/4a/4g3/2) (a/4g/4f3/2) | e z z2 z4 | %40
 z4 z!p! .b.b.b | (c'b) z2 z .b.b.b | (c'b) z2 z .b.b.b | (c'{d'c'}b) z a (a{ba}g) z f | %44
{g} (fe/) z/ e2- e.g.f.e | (de') !>!d'2- d'.c'.b.a | (bc') !>!b2- b.a.g.f | b/ z3/2 z2 z4 |"C" z8 | %49
!ff! e'4- | e'4 | (e'b) .b.b (gb).b.b | (gb).b.b (c'bag) | f'8- | f'8 | z aaa (fa).a.a | %56
 (fa).a.a (c'b).b.a | e'8- | e'8 | z bbb (gb).b.b | (gb).b.b (c'bag) | =d'8- | d'8 | %63
 z c'c'c' (ac').c'.c' | .c'.b.a.g .f.e.d.c | B2 z2 z4 |"^Fl."!f! e'4"^Pi." x4 | %67
"^Fl." d'4"^Pi." x4 | z2 !>!e'4 (f'>e') | d'2 z2 z4 | z =f'e'd' c' z z2 | z _e'd'c' b z z2 | %72
 z2 !>!g'4 (f'>e') | d' z z2 z4 | ^cdef gab^c' | d'a f'4 (g/f/e/d/) | ^cdef gab"D"^c' | %77
 d' z!f! !>!_e'2 z4 | z8 | z2!f! !>!_e'2 z4 | z8 | z8 | z8 | z8 | z8 | %85
"^Fl. or E\b Cl." z2!mf! !>!e'2- e'.d'.c'.b | .a z z2 z4 | z8 | z8 | z8 | z8 |"E" z8 | z8 | z8 | %94
 z4 z3/2"^Fl."!p! d<ef/ | g>gg>g g>gg>g | (^g4 a2) z2 | z8 | %98
V:2
 x/ | x8 | x8 | x8 | x8 | x8 | x8 | x8 | x8 | x8 | x8 | x8 | x8 | x8 | x8 | x8 | x8 | x8 | x8 | %19
 x8 | x8 | x8 | x8 | x8 | x8 | x8 | x8 ||[K:G][M:2/2] x8 | x8 | x8 | x8 | x8 | x8 | x8 | x8 | x8 | %36
 x8 | x8 | x8 | x8 | x8 | x8 | x8 | x8 | x8 | x8 | x8 | x8 | x8 | x4 | x4 | x8 | x8 | x8 | x8 | %55
 x8 | x8 | x8 | x8 | x8 | x8 | x8 | x8 | x8 | x8 | x8 | z4 e'4 | z4 d'4 | x8 | x8 | x8 | x8 | x8 | %73
 x8 | x8 | x8 | x8 | x8 | x8 | x8 | x8 | x8 | x8 | x8 | x8 | x8 | x8 | x8 | x8 | x8 | x8 | x8 | %92
 x8 | x8 | x8 | x8 | x8 | x8 | %98

